X:61
T:Aim not too high
T:Fortune My Foe
Z:Jack Campin, http://www.campin.me.uk/
F:Jack Campin's Nine-Note Tunebook
% last edit 03-02-2013
S:Simpson, The British Broadside Ballad and its Music
M:C|
L:1/4
Q:1/4=100
K:DDor
D2 DE|F2 E2   |DAGF|E4:|\
A2 AA|A2 A2   |
               AcBA|G4 |\
G2 cB|A3  G/F/|EDFE|D4|]

